data/icons/org.gabmus.gnome-feeds.svg

<svg width="128" height="128" version="1.0" xmlns="http://www.w3.org/2000/svg" xmlns:xlink="http://www.w3.org/1999/xlink"><defs><linearGradient id="h" x1="144" x2="144" y1="-84" y2="366.07" gradientTransform="matrix(.25 0 0 .25 4 43)" gradientUnits="userSpaceOnUse"><stop stop-color="#edece9" offset="0"/><stop stop-color="#fff" offset="1"/></linearGradient><linearGradient id="g" x1="69.009" x2="180.21" y1="487.9" y2="487.9" gradientTransform="translate(-60 -206)" gradientUnits="userSpaceOnUse"><stop stop-color="#c0bfbc" offset="0"/><stop stop-color="#dcdbd8" offset=".065"/><stop stop-color="#c0bfbc" offset=".11"/><stop stop-color="#c0bfbc" offset=".846"/><stop stop-color="#deddda" offset=".923"/><stop stop-color="#c0bfbc" offset="1"/></linearGradient><clipPath id="b"><path d="m252 116 28-28v-8h-36v36z" fill="#e74747"/></clipPath><linearGradient id="a" x1="344" x2="340" y1="76" y2="72" gradientTransform="matrix(.25 0 0 .25 180 83)" gradientUnits="userSpaceOnUse"><stop stop-color="#d5d3cf" offset="0"/><stop stop-color="#fff" offset="1"/></linearGradient></defs><path d="M16 40c-4.432 0-8 3.568-8 8v60c0 4.432 3.568 8 8 8h96c4.432 0 8-3.568 8-8V48c0-4.432-3.568-8-8-8z" fill="#ffa348"/><path transform="translate(0 -172)" d="m16 210c-4.432 0-8 3.568-8 8v60c0 4.432 3.568 8 8 8h96c4.432 0 8-3.568 8-8v-60c0-4.432-3.568-8-8-8z" fill="url(#g)"/><path d="m16 22c-4.432 0-8 3.568-8 8v70c0 4.432 3.568 8 8 8h48 48c4.432 0 8-3.568 8-8v-70c0-4.432-3.568-8-8-8h-48-48z" fill="url(#h)"/><g transform="matrix(.59642 0 0 .59642 -7.5708 -502)"><g transform="matrix(4.9684 0 0 4.9684 126.94 884.48)" fill="#ffa348"><path d="m6 12a2 2 0 0 1-2 2 2 2 0 0 1-2-2 2 2 0 0 1 2-2 2 2 0 0 1 2 2z" overflow="visible"/><path d="m2 6h1.014v1.014h-1.014zm7.014 7.014h0.986v0.986h-0.986zm4 0h0.986v0.986h-0.986zm-11.014-11.014h1.014v1.014h-1.014z"/><path d="m3.014 8.014c2.774 0 5 2.227 5 5h2c0-3.854-3.145-7-7-7z" font-family="sans-serif" font-weight="400" overflow="visible" style="font-feature-settings:normal;font-variant-alternates:normal;font-variant-caps:normal;font-variant-ligatures:normal;font-variant-numeric:normal;font-variant-position:normal;isolation:auto;mix-blend-mode:normal;shape-padding:0;text-decoration-color:#000000;text-decoration-line:none;text-decoration-style:solid;text-indent:0;text-orientation:mixed;text-transform:none" white-space="normal"/><path d="m 3.014,4.028 a 8.972,8.972 0 0 1 8.987,8.986 h 2 C 14,6.96 9.07,2.028 3.014,2.028 Z" font-family="sans-serif" font-weight="400" overflow="visible" style="font-feature-settings:normal;font-variant-alternates:normal;font-variant-caps:normal;font-variant-ligatures:normal;font-variant-numeric:normal;font-variant-position:normal;isolation:auto;mix-blend-mode:normal;shape-padding:0;text-decoration-color:#000000;text-decoration-line:none;text-decoration-style:solid;text-indent:0;text-orientation:mixed;text-transform:none" white-space="normal"/><path d="m4 7a1 1 0 0 1-1 1 1 1 0 0 1-1-1 1 1 0 0 1 1-1 1 1 0 0 1 1 1zm0-4a1 1 0 0 1-1 1 1 1 0 0 1-1-1 1 1 0 0 1 1-1 1 1 0 0 1 1 1zm6 10a1 1 0 0 1-1 1 1 1 0 0 1-1-1 1 1 0 0 1 1-1 1 1 0 0 1 1 1zm4 0a1 1 0 0 1-1 1 1 1 0 0 1-1-1 1 1 0 0 1 1-1 1 1 0 0 1 1 1z" overflow="visible"/></g><g transform="translate(9.375)" stroke-width="1.875"><rect x="33.75" y="894.42" width="53.75" height="7.5" ry="0" fill="#ffa348"/><g fill="#deddda"><rect x="33.75" y="909.42" width="60" height="7.5" ry="0"/><rect x="33.75" y="924.42" width="51.469" height="7.5" ry="0"/><rect x="33.75" y="939.42" width="60" height="7.5" ry="0"/><rect x="33.75" y="954.42" width="60" height="7.5" ry="0"/><rect x="33.75" y="969.42" width="60" height="7.5" ry="0"/><rect x="33.75" y="984.42" width="39.999" height="7.5" ry="0"/><rect x="33.75" y="999.42" width="60" height="7.5" ry="0"/></g></g><g fill="#deddda" stroke-width="1.875"><rect x="136.88" y="984.42" width="60" height="7.5" ry="0"/><rect x="136.88" y="999.42" width="60" height="7.5" ry="0"/><rect x="136.88" y="969.42" width="39.999" height="7.5" ry="0"/></g></g><rect transform="matrix(0 .63036 .63036 0 47.118 -68.269)" x="252" y="88" width="36" height="36" rx="11.2" ry="11.2" clip-path="url(#b)" enable-background="new" fill="url(#a)" style="paint-order:normal"/></svg>

<?xml version="1.0" encoding="UTF-8" standalone="no"?>
<svg
   xmlns:dc="http://purl.org/dc/elements/1.1/"
   xmlns:cc="http://creativecommons.org/ns#"
   xmlns:rdf="http://www.w3.org/1999/02/22-rdf-syntax-ns#"
   xmlns:svg="http://www.w3.org/2000/svg"
   xmlns="http://www.w3.org/2000/svg"
   xmlns:xlink="http://www.w3.org/1999/xlink"
   xmlns:sodipodi="http://sodipodi.sourceforge.net/DTD/sodipodi-0.dtd"
   xmlns:inkscape="http://www.inkscape.org/namespaces/inkscape"
   inkscape:export-ydpi="192"
   inkscape:export-xdpi="192"
   inkscape:export-filename="/home/gabmus/git/razerCommander/icon.png"
   sodipodi:docname="org.gabmus.gnome-feeds.svg"
   inkscape:version="1.0alpha2 (e801763, 2019-07-17)"
   version="1.1"
   id="svg2"
   viewBox="0 0 239.99999 239.99999"
   height="256"
   width="256">
  <sodipodi:namedview
     inkscape:document-rotation="0"
     showguides="false"
     inkscape:snap-nodes="false"
     inkscape:snap-smooth-nodes="false"
     inkscape:object-paths="false"
     inkscape:snap-global="true"
     inkscape:measure-end="-490.298,266.428"
     inkscape:measure-start="-387.857,207.857"
     inkscape:snap-bbox-edge-midpoints="false"
     inkscape:bbox-paths="false"
     inkscape:window-maximized="1"
     inkscape:window-y="27"
     inkscape:window-x="0"
     inkscape:window-height="1376"
     inkscape:window-width="2560"
     inkscape:bbox-nodes="true"
     inkscape:snap-page="true"
     units="px"
     inkscape:snap-center="true"
     inkscape:snap-bbox-midpoints="true"
     inkscape:snap-bbox="true"
     showgrid="false"
     inkscape:current-layer="layer1"
     inkscape:document-units="px"
     inkscape:cy="128.83676"
     inkscape:cx="109.01324"
     inkscape:zoom="2.8284273"
     inkscape:pageshadow="2"
     inkscape:pageopacity="0.0"
     borderopacity="1.0"
     bordercolor="#666666"
     pagecolor="#ffffff"
     id="base" />
  <defs
     id="defs4">
    <linearGradient
       id="linearGradient1038">
      <stop
         style="stop-color:#c0bfbc;stop-opacity:1"
         offset="0"
         id="stop1026" />
      <stop
         id="stop1028"
         offset="0.04545454"
         style="stop-color:#ffffff;stop-opacity:1" />
      <stop
         id="stop1030"
         offset="0.09090909"
         style="stop-color:#deddda;stop-opacity:1" />
      <stop
         id="stop1032"
         offset="0.90909088"
         style="stop-color:#deddda;stop-opacity:1" />
      <stop
         style="stop-color:#ffffff;stop-opacity:1"
         offset="0.95454544"
         id="stop1034" />
      <stop
         style="stop-color:#c0bfbc;stop-opacity:1"
         offset="1"
         id="stop1036" />
    </linearGradient>
    <clipPath
       id="clipPath2213"
       clipPathUnits="userSpaceOnUse">
      <rect
         ry="8"
         rx="8"
         y="-188"
         x="160"
         height="56"
         width="16"
         id="rect2215"
         style="display:inline;opacity:1;vector-effect:none;fill:none;fill-opacity:1;stroke:#000000;stroke-width:1;stroke-linecap:butt;stroke-linejoin:miter;stroke-miterlimit:4;stroke-dasharray:none;stroke-dashoffset:0;stroke-opacity:1;marker:none;marker-start:none;marker-mid:none;marker-end:none;paint-order:normal;enable-background:new" />
    </clipPath>
    <linearGradient
       id="linearGradient1005">
      <stop
         style="stop-color:#d0bb8e;stop-opacity:1"
         offset="0"
         id="stop1001" />
      <stop
         style="stop-color:#ffffff;stop-opacity:1"
         offset="1"
         id="stop1003" />
    </linearGradient>
    <linearGradient
       id="linearGradient1351-3">
      <stop
         id="stop1347"
         offset="0"
         style="stop-color:#d5d3cf;stop-opacity:1" />
      <stop
         id="stop1349-6"
         offset="1"
         style="stop-color:#ffffff;stop-opacity:1" />
    </linearGradient>
    <linearGradient
       gradientTransform="matrix(2.4023166,0,0,1.8749999,-292.96676,-489.86224)"
       gradientUnits="userSpaceOnUse"
       y2="-276"
       x2="115.99999"
       y1="-276"
       x1="27.99999"
       id="linearGradient1159"
       xlink:href="#linearGradient1038" />
    <linearGradient
       gradientTransform="matrix(0.14289794,-0.83286976,0.8328698,-0.14289792,145.73585,1112.0586)"
       y2="-127.39915"
       x2="158.51802"
       y1="-97.698288"
       x1="128.81717"
       gradientUnits="userSpaceOnUse"
       id="linearGradient1103"
       xlink:href="#linearGradient1005" />
    <clipPath
       id="clipPath1609-7"
       clipPathUnits="userSpaceOnUse">
      <path
         style="fill:#e74747;stroke:none;stroke-width:0.25px;stroke-linecap:butt;stroke-linejoin:miter;stroke-opacity:1"
         d="m 252,116 28,-28 v -8 h -36 v 36 z"
         id="path1611-5" />
    </clipPath>
    <linearGradient
       y2="72"
       x2="340"
       y1="76"
       x1="344"
       gradientTransform="matrix(0.25,0,0,0.25,180,83)"
       gradientUnits="userSpaceOnUse"
       id="linearGradient1130"
       xlink:href="#linearGradient1351-3" />
    <clipPath
       id="clipPath1062"
       clipPathUnits="userSpaceOnUse">
      <rect
         transform="scale(-1)"
         style="opacity:1;vector-effect:none;fill:#f6f5f4;fill-opacity:1;stroke:none;stroke-width:13.71876526;stroke-linecap:butt;stroke-linejoin:miter;stroke-miterlimit:4;stroke-dasharray:none;stroke-dashoffset:0;stroke-opacity:1;marker:none;marker-start:none;marker-mid:none;marker-end:none;paint-order:normal"
         id="rect1064"
         width="88"
         height="108"
         x="-108"
         y="-116"
         rx="8"
         ry="8"
         clip-path="none" />
    </clipPath>
    <linearGradient
       gradientTransform="matrix(1.8749999,0,0,1.8749999,3.01904,480.30412)"
       xlink:href="#d"
       id="e"
       gradientUnits="userSpaceOnUse"
       x1="10"
       y1="106"
       x2="118"
       y2="106" />
    <linearGradient
       id="d">
      <stop
         offset="0"
         stop-color="#cfcfcc"
         id="stop2463" />
      <stop
         offset=".037"
         stop-color="#e8e8e8"
         stop-opacity=".98"
         id="stop2465" />
      <stop
         offset=".074"
         stop-color="#d0d0cc"
         id="stop2467" />
      <stop
         offset=".923"
         stop-color="#d0d0cc"
         id="stop2469" />
      <stop
         offset=".962"
         stop-color="#e8e8e8"
         id="stop2471" />
      <stop
         offset="1"
         stop-color="#d0d0cc"
         id="stop2473" />
    </linearGradient>
    <linearGradient
       gradientTransform="matrix(1.8749999,0,0,1.8749999,3.01904,480.30412)"
       xlink:href="#b"
       id="f"
       x1="73"
       y1="65"
       x2="65"
       y2="65"
       gradientUnits="userSpaceOnUse" />
    <linearGradient
       id="b">
      <stop
         offset="0"
         stop-color="#f6f5f4"
         id="stop2494" />
      <stop
         offset=".333"
         stop-color="#fdfdfd"
         id="stop2496" />
      <stop
         offset="1"
         stop-color="#c9c6c1"
         id="stop2498" />
    </linearGradient>
    <linearGradient
       gradientTransform="matrix(1.8749999,0,0,1.8749999,3.01904,480.30412)"
       xlink:href="#a"
       id="g"
       x1="55"
       y1="65"
       x2="64"
       y2="65"
       gradientUnits="userSpaceOnUse" />
    <linearGradient
       id="a">
      <stop
         offset="0"
         stop-color="#f6f5f4"
         id="stop2489" />
      <stop
         offset="1"
         stop-color="#e1dfdd"
         id="stop2491" />
    </linearGradient>
  </defs>
  <metadata
     id="metadata7">
    <rdf:RDF>
      <cc:Work
         rdf:about="">
        <dc:format>image/svg+xml</dc:format>
        <dc:type
           rdf:resource="http://purl.org/dc/dcmitype/StillImage" />
        <dc:title />
      </cc:Work>
    </rdf:RDF>
  </metadata>
  <g
     transform="translate(0,-812.36218)"
     id="layer1"
     inkscape:groupmode="layer"
     inkscape:label="Livello 1">
    <g
       transform="matrix(1.8749999,0,0,1.8749999,-2e-6,489.86224)"
       style="display:none;opacity:1;stop-opacity:1"
       id="layer2">
      <g
         id="g9211"
         style="display:inline;enable-background:new">
        <rect
           style="display:inline;overflow:visible;visibility:visible;fill:#f0f0f0;fill-opacity:1;fill-rule:nonzero;stroke:none;stroke-width:0.5;marker:none;enable-background:accumulate"
           id="rect13805"
           width="128"
           height="128"
           x="9.2651362e-08"
           y="172" />
        <circle
           cx="64.000031"
           cy="236"
           r="59.504131"
           id="circle2892"
           style="display:inline;opacity:0.1;vector-effect:none;fill:none;fill-opacity:1;stroke:#000000;stroke-width:0.99;stroke-linecap:butt;stroke-linejoin:miter;stroke-miterlimit:4;stroke-dasharray:0.99, 0.99;stroke-dashoffset:0;stroke-opacity:1;marker:none;marker-start:none;marker-mid:none;marker-end:none;paint-order:normal;enable-background:new" />
        <rect
           ry="7.9292889"
           rx="8.701004"
           y="180.49496"
           x="20.495007"
           height="111.01005"
           width="87.009987"
           id="rect2894"
           style="display:inline;opacity:0.1;vector-effect:none;fill:none;fill-opacity:1;stroke:#000000;stroke-width:0.99;stroke-linecap:butt;stroke-linejoin:miter;stroke-miterlimit:4;stroke-dasharray:0.99, 0.99;stroke-dashoffset:0;stroke-opacity:1;marker:none;marker-start:none;marker-mid:none;marker-end:none;paint-order:normal;enable-background:new" />
        <rect
           ry="7.9238095"
           rx="7.9238095"
           y="184.49524"
           x="12.495266"
           height="103.00952"
           width="103.00952"
           id="rect2896"
           style="display:inline;opacity:0.1;vector-effect:none;fill:none;fill-opacity:1;stroke:#000000;stroke-width:0.99;stroke-linecap:butt;stroke-linejoin:miter;stroke-miterlimit:4;stroke-dasharray:0.99, 0.99;stroke-dashoffset:0;stroke-opacity:1;marker:none;marker-start:none;marker-mid:none;marker-end:none;paint-order:normal;enable-background:new" />
        <rect
           ry="8.701005"
           rx="7.9292889"
           y="200.49496"
           x="8.4950066"
           height="87.010048"
           width="111.01004"
           id="rect2898"
           style="display:inline;opacity:0.1;vector-effect:none;fill:none;fill-opacity:1;stroke:#000000;stroke-width:0.99;stroke-linecap:butt;stroke-linejoin:miter;stroke-miterlimit:4;stroke-dasharray:0.99, 0.99;stroke-dashoffset:0;stroke-opacity:1;marker:none;marker-start:none;marker-mid:none;marker-end:none;paint-order:normal;enable-background:new" />
        <path
           inkscape:connector-curvature="0"
           id="path2900"
           d="M 2.6203015e-5,288.99999 H 128.00003"
           style="display:inline;fill:none;stroke:#62a0ea;stroke-width:2;stroke-linecap:butt;stroke-linejoin:miter;stroke-miterlimit:4;stroke-dasharray:none;stroke-opacity:1;enable-background:new" />
      </g>
    </g>
    <rect
       transform="scale(-1)"
       style="opacity:1;vector-effect:none;fill:#ffa348;fill-opacity:1;stroke:none;stroke-width:29.116;stroke-linecap:butt;stroke-linejoin:miter;stroke-miterlimit:4;stroke-dasharray:none;stroke-dashoffset:0;stroke-opacity:1;marker:none;marker-start:none;marker-mid:none;marker-end:none;paint-order:normal;stop-opacity:1"
       id="rect1167"
       width="211.40387"
       height="56.718746"
       x="-225.70192"
       y="-1041.1122"
       rx="14.999999"
       clip-path="none" />
    <g
       style="display:inline;opacity:1;enable-background:new;stop-opacity:1"
       id="g8005"
       clip-path="url(#clipPath2213)"
       transform="matrix(0.46874998,0,0,0.46874998,-701.24996,868.70237)" />
    <g
       style="display:inline;opacity:1;enable-background:new;stop-opacity:1"
       id="g8015"
       clip-path="url(#clipPath2213)"
       transform="matrix(0.46874998,0,0,0.46874998,-794.99996,868.70237)" />
    <g
       style="display:inline;opacity:1;enable-background:new;stop-opacity:1"
       id="g8025"
       clip-path="url(#clipPath2213)"
       transform="matrix(0.46874998,0,0,0.46874998,-776.24996,868.70237)" />
    <g
       style="display:inline;opacity:1;enable-background:new;stop-opacity:1"
       id="g8035"
       clip-path="url(#clipPath2213)"
       transform="matrix(0.46874998,0,0,0.46874998,-757.49996,868.70237)" />
    <g
       style="display:inline;opacity:1;enable-background:new;stop-opacity:1"
       id="g8045"
       clip-path="url(#clipPath2213)"
       transform="matrix(0.46874998,0,0,0.46874998,-738.74996,868.70237)" />
    <g
       style="display:inline;opacity:1;enable-background:new;stop-opacity:1"
       id="g8055"
       clip-path="url(#clipPath2213)"
       transform="matrix(0.46874998,0,0,0.46874998,-719.99996,868.70237)" />
    <rect
       clip-path="none"
       rx="14.999999"
       y="-1037.3622"
       x="-225.70192"
       height="74.999992"
       width="211.40387"
       id="rect1151"
       style="opacity:1;vector-effect:none;fill:url(#linearGradient1159);fill-opacity:1;stroke:none;stroke-width:29.116;stroke-linecap:butt;stroke-linejoin:miter;stroke-miterlimit:4;stroke-dasharray:none;stroke-dashoffset:0;stroke-opacity:1;marker:none;marker-start:none;marker-mid:none;marker-end:none;paint-order:normal;stop-opacity:1"
       transform="scale(-1)" />
    <rect
       clip-path="none"
       rx="14.999999"
       y="-1029.8622"
       x="-225.70192"
       height="154.63771"
       width="211.40387"
       id="rect3528"
       style="opacity:1;vector-effect:none;fill:#f6f5f4;fill-opacity:1;stroke:none;stroke-width:29.116;stroke-linecap:butt;stroke-linejoin:miter;stroke-miterlimit:4;stroke-dasharray:none;stroke-dashoffset:0;stroke-opacity:1;marker:none;marker-start:none;marker-mid:none;marker-end:none;paint-order:normal;stop-opacity:1"
       transform="scale(-1)" />
    <g
       id="g3548">
      <g
         id="g3394"
         fill="#474747"
         transform="matrix(4.9683585,0,0,4.9683585,126.93828,884.48162)"
         style="fill:#ffa348">
        <path
           id="path3384"
           overflow="visible"
           color="#000"
           style="marker:none;fill:#ffa348"
           d="M 6,12 A 2,2 0 0 1 4,14 2,2 0 0 1 2,12 2,2 0 0 1 4,10 2,2 0 0 1 6,12 Z"
           inkscape:connector-curvature="0" />
        <path
           id="path3386"
           d="M 2,6 H 3.014 V 7.014 H 2 Z m 7.014,7.014 H 10 V 14 H 9.014 Z m 4,0 H 14 V 14 H 13.014 Z M 2,2 H 3.014 V 3.014 H 2 Z"
           inkscape:connector-curvature="0"
           style="fill:#ffa348" />
        <path
           id="path3388"
           overflow="visible"
           white-space="normal"
           font-family="sans-serif"
           font-weight="400"
           color="#000"
           style="line-height:normal;font-variant-ligatures:normal;font-variant-position:normal;font-variant-caps:normal;font-variant-numeric:normal;font-variant-alternates:normal;font-feature-settings:normal;text-indent:0;text-align:start;text-decoration:none;text-decoration-line:none;text-decoration-style:solid;text-decoration-color:#000000;text-transform:none;text-orientation:mixed;shape-padding:0;isolation:auto;mix-blend-mode:normal;marker:none;fill:#ffa348"
           d="m 3.014,8.014 c 2.774,0 5,2.227 5,5 h 2 c 0,-3.854 -3.145,-7 -7,-7 z"
           inkscape:connector-curvature="0" />
        <path
           id="path3390"
           overflow="visible"
           white-space="normal"
           font-family="sans-serif"
           font-weight="400"
           color="#000"
           style="line-height:normal;font-variant-ligatures:normal;font-variant-position:normal;font-variant-caps:normal;font-variant-numeric:normal;font-variant-alternates:normal;font-feature-settings:normal;text-indent:0;text-align:start;text-decoration:none;text-decoration-line:none;text-decoration-style:solid;text-decoration-color:#000000;text-transform:none;text-orientation:mixed;shape-padding:0;isolation:auto;mix-blend-mode:normal;marker:none;fill:#ffa348"
           d="m 3.014,4.028 a 8.972,8.972 0 0 1 8.987,8.986 h 2 C 14,6.96 9.07,2.028 3.014,2.028 Z"
           inkscape:connector-curvature="0" />
        <path
           id="path3392"
           overflow="visible"
           color="#000"
           style="marker:none;fill:#ffa348"
           d="M 4,7 A 1,1 0 0 1 3,8 1,1 0 0 1 2,7 1,1 0 0 1 3,6 1,1 0 0 1 4,7 Z M 4,3 A 1,1 0 0 1 3,4 1,1 0 0 1 2,3 1,1 0 0 1 3,2 1,1 0 0 1 4,3 Z m 6,10 a 1,1 0 0 1 -1,1 1,1 0 0 1 -1,-1 1,1 0 0 1 1,-1 1,1 0 0 1 1,1 z m 4,0 a 1,1 0 0 1 -1,1 1,1 0 0 1 -1,-1 1,1 0 0 1 1,-1 1,1 0 0 1 1,1 z"
           inkscape:connector-curvature="0" />
      </g>
      <g
         style="opacity:1;stop-opacity:1"
         id="g3418"
         transform="translate(9.375007)">
        <rect
           style="opacity:1;fill:#ffa348;stroke-width:1.875;stop-opacity:1"
           width="53.750446"
           height="7.5"
           x="33.749992"
           y="894.41833"
           ry="0"
           fill="#0cc"
           id="rect3355" />
        <rect
           style="opacity:1;stroke-width:1.875;stop-opacity:1"
           width="59.999996"
           height="7.4999995"
           x="33.749992"
           y="909.41833"
           ry="0"
           fill="#deddda"
           id="rect3357" />
        <rect
           style="opacity:1;stroke-width:1.875;stop-opacity:1"
           ry="0"
           y="924.41833"
           x="33.749992"
           height="7.5"
           width="51.468765"
           fill="#deddda"
           id="rect3359" />
        <rect
           style="opacity:1;stroke-width:1.875;stop-opacity:1"
           width="59.999996"
           height="7.4999995"
           x="33.749992"
           y="939.41833"
           ry="0"
           fill="#deddda"
           id="rect3361" />
        <rect
           style="opacity:1;stroke-width:1.875;stop-opacity:1"
           ry="0"
           y="954.41833"
           x="33.749992"
           height="7.4999995"
           width="59.999996"
           fill="#deddda"
           id="rect3363" />
        <rect
           style="opacity:1;stroke-width:1.875;stop-opacity:1"
           width="59.999996"
           height="7.4999995"
           x="33.749992"
           y="969.41833"
           ry="0"
           fill="#deddda"
           id="rect3365" />
        <rect
           style="opacity:1;stroke-width:1.875;stop-opacity:1"
           ry="0"
           y="984.41833"
           x="33.749992"
           height="7.4999995"
           width="39.999374"
           fill="#deddda"
           id="rect3367" />
        <rect
           id="rect3380"
           fill="#deddda"
           width="59.999996"
           height="7.4999995"
           x="33.749992"
           y="999.41833"
           ry="0"
           style="opacity:1;stroke-width:1.875;stop-opacity:1" />
      </g>
      <rect
         style="opacity:1;stroke-width:1.875;stop-opacity:1"
         ry="0"
         y="984.41833"
         x="136.875"
         height="7.4999995"
         width="59.999996"
         fill="#deddda"
         id="rect3524" />
      <rect
         id="rect3434"
         fill="#deddda"
         width="59.999996"
         height="7.4999995"
         x="136.875"
         y="999.41833"
         ry="0"
         style="opacity:1;stroke-width:1.875;stop-opacity:1" />
      <rect
         id="rect3522"
         fill="#deddda"
         width="39.999374"
         height="7.4999995"
         x="136.875"
         y="969.41833"
         ry="0"
         style="opacity:1;stroke-width:1.875;stop-opacity:1" />
    </g>
    <rect
       clip-path="url(#clipPath1609-7)"
       transform="matrix(0,1.3392856,1.3392856,0,70.34479,654.86221)"
       ry="11.2"
       rx="11.2"
       y="88"
       x="252"
       height="36"
       width="36"
       id="rect1056-3"
       style="display:inline;opacity:1;fill:url(#linearGradient1130);fill-opacity:1;stroke:none;stroke-width:0.5;stroke-linecap:butt;stroke-linejoin:miter;stroke-miterlimit:4;stroke-dasharray:none;stroke-dashoffset:0;stroke-opacity:1;marker:none;marker-start:none;marker-mid:none;marker-end:none;paint-order:normal;enable-background:new;stop-opacity:1" />
  </g>
</svg>
